assets/awsworkmail/original.svg

<svg height="64" viewBox="0 0 64 64" width="64" xmlns="http://www.w3.org/2000/svg"><g fill="none" fill-rule="evenodd"><path d="m0 0h64v64h-64z" fill="#dd344c"/><path d="m12 52v-38.586l19.293 19.293a.997.997 0 0 0 1.414 0l19.293-19.293v38.586zm38.586-40-18.586 18.586-18.586-18.586zm2.414-2h-42a1 1 0 0 0 -1 1v42a1 1 0 0 0 1 1h42a1 1 0 0 0 1-1v-42a1 1 0 0 0 -1-1" fill="#fff"/></g></svg>

<svg xmlns="http://www.w3.org/2000/svg" width="64" height="64" viewBox="0 0 64 64"><title>Icon-Architecture/48/Arch_Amazon-WorkMail_48</title><g id="Icon-Architecture/48/Arch_Amazon-WorkMail_48" fill="none" fill-rule="evenodd" stroke="none" stroke-width="1"><g id="Icon-Architecture-BG/48/Business-Applications" fill="#dd344c"><path id="Rectangle" d="M0 0h64v64H0z"/></g><path id="Amazon-WorkMail_Icon_48_Squid" fill="#fff" d="M12 52V13.414l19.293 19.293a.997.997 0 0 0 1.414 0L52 13.414V52zm38.586-40L32 30.586 13.414 12zM53 10H11a1 1 0 0 0-1 1v42a1 1 0 0 0 1 1h42a1 1 0 0 0 1-1V11a1 1 0 0 0-1-1"/></g></svg>
